mimes/scalable/application-vnd.android.package-archive.svg

<?xml version="1.0" encoding="UTF-8" standalone="no"?>
<svg
   xmlns:dc="http://purl.org/dc/elements/1.1/"
   xmlns:cc="http://creativecommons.org/ns#"
   xmlns:rdf="http://www.w3.org/1999/02/22-rdf-syntax-ns#"
   xmlns:svg="http://www.w3.org/2000/svg"
   xmlns="http://www.w3.org/2000/svg"
   xmlns:sodipodi="http://sodipodi.sourceforge.net/DTD/sodipodi-0.dtd"
   xmlns:inkscape="http://www.inkscape.org/namespaces/inkscape"
   width="48"
   height="48"
   viewBox="0 0 12.7 12.7"
   version="1.1"
   id="svg4"
   sodipodi:docname="application-vnd.android.package-archive.svg"
   inkscape:version="0.92.3 (2405546, 2018-03-11)">
  <metadata
     id="metadata10">
    <rdf:RDF>
      <cc:Work
         rdf:about="">
        <dc:format>image/svg+xml</dc:format>
        <dc:type
           rdf:resource="http://purl.org/dc/dcmitype/StillImage" />
        <dc:title></dc:title>
      </cc:Work>
    </rdf:RDF>
  </metadata>
  <defs
     id="defs8" />
  <sodipodi:namedview
     pagecolor="#ffffff"
     bordercolor="#666666"
     borderopacity="1"
     objecttolerance="10"
     gridtolerance="10"
     guidetolerance="10"
     inkscape:pageopacity="0"
     inkscape:pageshadow="2"
     inkscape:window-width="1366"
     inkscape:window-height="715"
     id="namedview6"
     showgrid="false"
     showguides="true"
     inkscape:guide-bbox="true"
     inkscape:snap-global="true"
     inkscape:zoom="5.4895833"
     inkscape:cx="24"
     inkscape:cy="24"
     inkscape:window-x="0"
     inkscape:window-y="27"
     inkscape:window-maximized="1"
     inkscape:current-layer="svg4" />
  <g
     id="g826">
    <path
       inkscape:connector-curvature="0"
       id="path830"
       d="m 7.3427797,0.50332846 c -0.049987,0 -0.095505,0.0111265 -0.1281231,0.0294556 -0.030738,0.0172693 -0.048532,0.0415092 -0.050642,0.0676961 h -0.00101 V 1.5880167 c 0.1738671,0.051264 0.3313553,0.1228715 0.4613439,0.2185914 0.2311034,0.1701772 0.3815506,0.4003066 0.4026002,0.6588745 h 0.00811 v 0.061495 0.1302247 0.1235067 0.1741495 c 0,0.2538482 0.2767574,0.45837 0.619852,0.45837 h 0.1443282 l -5.186e-4,0.00517 h 2.0641477 c 0.402446,0 0.748641,0.1348703 0.999156,0.3369302 V 2.607076 2.4680664 2.2840983 1.0676351 0.96169839 c 0,-0.12692449 -0.06935,-0.2417064 -0.181296,-0.32452799 C 11.568784,0.5543488 11.413725,0.50332846 11.242176,0.50332846 H 9.4124981 7.8755282 Z"
       style="opacity:1;fill:#008000;fill-opacity:1;fill-rule:nonzero;stroke:none;stroke-width:0.50711799;stroke-linecap:round;stroke-linejoin:bevel;stroke-miterlimit:4;stroke-dasharray:none;stroke-opacity:1" />
    <path
       inkscape:connector-curvature="0"
       id="path833"
       d="m 2.0098987,1.9912065 c -0.7823206,0 -1.4117922,0.4429314 -1.4117922,0.9928533 V 11.64666 c 0,0.549921 0.6294716,0.992854 1.4117922,0.992854 h 5.3339356 3.1393877 c 0.782323,0 1.411795,-0.442933 1.411795,-0.992854 V 4.7215532 h -0.01608 C 11.797901,4.2265379 11.209824,3.843086 10.483224,3.843086 H 8.3767919 v 0 L 8.2301609,3.838116 C 7.8804595,3.8262648 7.5979089,3.6397857 7.5979089,3.3936834 V 3.2250392 3.1052277 2.9790864 2.9194067 h -0.00833 C 7.5461916,2.413392 6.9711816,2.0160708 6.2478645,1.993467 L 6.247203,1.991207 h -0.02508 z"
       style="opacity:1;fill:#333333;fill-opacity:1;fill-rule:nonzero;stroke:none;stroke-width:0.50711799;stroke-linecap:round;stroke-linejoin:bevel;stroke-miterlimit:4;stroke-dasharray:none;stroke-opacity:1" />
    <path
       inkscape:connector-curvature="0"
       id="path901-5"
       d="m 6.3423961,2.5881751 c 0.3276849,0.016569 0.5852967,0.2006791 0.5852981,0.4289428 v 0.2179872 0.1063568 0.078669 c 0,0.4896925 0.5323583,0.8835327 1.2226954,0.9471021 v 0 l 2.4421494,0.022855 c 0.350073,0.00327 0.632251,0.192791 0.632251,0.4320193 v 1.7720255 5.0145862 c 0,0.239228 -0.282145,0.432019 -0.632251,0.432019 H 7.3438343 1.9005576 c -0.3501059,0 -0.632252,-0.192791 -0.632252,-0.432019 V 3.0219522 c 0,-0.2392282 0.2821461,-0.4320192 0.632252,-0.4320192 h 4.4424807 z"
       style="opacity:1;fill:#cccccc;fill-opacity:1;fill-rule:nonzero;stroke:none;stroke-width:0.50711799;stroke-linecap:round;stroke-linejoin:bevel;stroke-miterlimit:4;stroke-dasharray:none;stroke-opacity:1" />
    <path
       inkscape:connector-curvature="0"
       id="path6"
       d="M 2.6425999,2.5845502 V 8.287939 c 0,0.1614413 0.069204,0.3053109 0.1781391,0.4086026 C 2.641717,8.821309 2.5238406,9.0285247 2.5238406,9.2621186 v 1.3780794 c 0,0.378992 0.308324,0.689034 0.6890393,0.689034 0.3807157,0 0.6890396,-0.310042 0.6890396,-0.689034 V 9.2621186 c 0,-0.2328282 -0.1165179,-0.4395031 -0.2945468,-0.5644009 C 3.7153099,8.5937749 3.78316,8.4488331 3.78316,8.287939 V 2.5845502 H 3.4980201 V 2.8696903 H 3.2128799 V 3.1548301 H 3.4980201 V 3.4399703 H 3.2128799 V 3.7251104 H 3.4980201 V 4.0102503 H 3.2128799 V 4.2953905 H 3.4980201 V 4.5805303 H 3.2128799 V 4.8656705 H 3.4980201 V 5.1508106 H 3.2128799 v 0.28514 H 3.4980201 V 5.7210907 H 3.2128799 V 6.0062306 H 3.4980201 V 6.2913708 H 3.2128799 c 0,0 0.011662,0.180927 0,0.2857279 H 3.4980201 V 6.8622386 H 3.2128799 V 7.1473787 H 3.4980201 V 7.4325189 H 3.2128799 V 7.7176588 H 3.4980201 V 8.0027989 H 3.2128799 V 8.287939 h 0.2851402 v 0.28514 H 3.2128799 V 8.287939 H 2.9277401 V 8.0027989 H 3.2128799 V 7.7176588 H 2.9277401 V 7.4325189 H 3.2128799 V 7.1473787 H 2.9277401 V 6.8622386 H 3.2128799 V 6.5770987 H 2.9277401 V 6.2913708 H 3.2128799 V 6.0062306 H 2.9277401 V 5.7210907 H 3.2128799 V 5.4359506 H 2.9277401 v -0.28514 H 3.2128799 V 4.8656705 H 2.9277401 V 4.5805303 H 3.2128799 V 4.2953905 H 2.9277401 V 4.0102503 H 3.2128799 V 3.7251104 H 2.9277401 V 3.4399703 H 3.2128799 V 3.1548301 H 2.9277401 V 2.8696903 H 3.2128799 V 2.5845502 Z m 0.57028,6.3330487 c 0.1901833,0 0.3445198,0.1377966 0.3445198,0.3445197 0,0.172269 -0.1543365,0.3445196 -0.3445198,0.3445196 -0.1901859,0 -0.3445196,-0.1722506 -0.3445196,-0.3445196 0,-0.2067231 0.1543337,-0.34452 0.3445196,-0.3445197 z m 0,1.0335589 c 0.1902823,0 0.3445198,0.1542372 0.3445198,0.3445192 v 0.344521 c 0,0.190282 -0.1542375,0.34452 -0.3445198,0.34452 -0.1902849,0 -0.3445196,-0.154238 -0.3445196,-0.34452 v -0.344521 c 0,-0.190282 0.1542347,-0.3445192 0.3445196,-0.3445192 z"
       style="opacity:1;fill:#008000;fill-opacity:1;stroke-width:0.26458335" />
    <path
       id="path80"
       d="m 7.0017201,5.6860463 c -0.00668,7.092e-4 -0.012282,0.00246 -0.017968,0.00562 -0.024084,0.013344 -0.032337,0.041201 -0.019091,0.065129 l 0.2376892,0.428953 C 6.7306609,6.4304946 6.4382946,6.8908149 6.4372574,7.3902896 H 9.4377428 C 9.4363822,6.8909766 9.1439036,6.4310077 8.6722747,6.1865022 L 8.9103371,5.7567919 c 0.013278,-0.023929 0.00536,-0.051785 -0.018715,-0.065129 -0.0058,-0.00317 -0.01136,-0.0049 -0.017967,-0.00562 -0.018347,-0.00196 -0.036714,0.00621 -0.046788,0.02433 L 8.5861822,6.1445787 C 8.3838523,6.0545838 8.1620898,6.0075642 7.9375001,6.0072061 7.7130198,6.007781 7.4917099,6.0548616 7.289566,6.144953 L 7.0485089,5.7103766 c -0.010039,-0.018125 -0.028413,-0.026305 -0.046789,-0.02433 z m 0.169189,0.8639123 A 0.15721145,0.15721145 0 0 1 7.32812,6.7071695 0.15721145,0.15721145 0 0 1 7.1709091,6.8643806 0.15721145,0.15721145 0 0 1 7.013698,6.7071695 0.15721145,0.15721145 0 0 1 7.1709091,6.5499586 Z m 1.5331821,0 A 0.15721145,0.15721145 0 0 1 8.8613022,6.7071695 0.15721145,0.15721145 0 0 1 8.7040912,6.8643806 0.15721145,0.15721145 0 0 1 8.5468803,6.7071695 0.15721145,0.15721145 0 0 1 8.7040912,6.5499586 Z M 5.8522078,7.5748251 c -0.1873054,2e-7 -0.3361326,0.1487872 -0.3361326,0.336132 v 1.4014244 c 0,0.1873568 0.1487881,0.3361318 0.3361326,0.3361318 0.187347,0 0.336132,-0.148824 0.336132,-0.3361318 V 7.9109571 c 0,-0.1873077 -0.1488242,-0.336132 -0.336132,-0.336132 z m 4.1705852,0 c -0.1873073,1e-7 -0.3361325,0.1488243 -0.3361325,0.336132 v 1.4014244 c 0,0.1873078 0.148785,0.3361318 0.3361325,0.3361318 0.187344,0 0.336132,-0.148787 0.336132,-0.3361318 V 7.9109571 c 0,-0.1873572 -0.148827,-0.336132 -0.336132,-0.336132 z m -3.5855356,0.057645 v 2.1743792 c 0,0.2009207 0.1617755,0.3623337 0.3627084,0.3623337 h 0.241057 v 0.742262 c 0,0.187309 0.1487892,0.336133 0.3361322,0.336133 0.1873449,0 0.3361321,-0.148789 0.3361321,-0.336133 v -0.742262 h 0.4484261 v 0.74226 c 0,0.187359 0.1487893,0.336135 0.3361321,0.336135 0.1873435,0 0.3365065,-0.148826 0.3365066,-0.336135 v -0.74226 h 0.2406826 c 0.2009184,0 0.3627083,-0.161403 0.3627083,-0.3623347 V 7.632469 Z"
       style="fill:#008000;stroke-width:0.03612093"
       inkscape:connector-curvature="0" />
  </g>
</svg>

<?xml version="1.0" encoding="UTF-8" standalone="no"?><svg xmlns:dc="http://purl.org/dc/elements/1.1/" xmlns:cc="http://creativecommons.org/ns#" xmlns:rdf="http://www.w3.org/1999/02/22-rdf-syntax-ns#" xmlns="http://www.w3.org/2000/svg" width="48" height="48" viewBox="0 0 12.7 12.7"><metadata><rdf:RDF><cc:Work><dc:format>image/svg+xml</dc:format><dc:type rdf:resource="http://purl.org/dc/dcmitype/StillImage"/><dc:title/></cc:Work></rdf:RDF></metadata><path d="M7.34.5c-.05 0-.1.01-.13.03-.03.02-.04.04-.05.07v.99c.18.05.33.12.46.22.24.17.39.4.4.66h.02v.48c0 .26.27.46.61.46h2.21c.4 0 .75.14 1 .35V.97a.4.4 0 0 0-.18-.33.74.74 0 0 0-.44-.14H7.88z" fill="green"/><path d="M2.01 2C1.23 2 .6 2.42.6 2.97v8.67c0 .55.63.99 1.41.99h8.47c.79 0 1.42-.44 1.42-1V4.73h-.02c-.08-.5-.67-.88-1.4-.88H8.23c-.35-.01-.63-.2-.63-.45V2.92h-.01c-.04-.5-.62-.9-1.34-.93h-.03z" fill="#333"/><path d="M6.34 2.59c.33.01.59.2.59.43v.4c0 .49.53.88 1.22.95l2.44.02c.35 0 .63.2.63.43V11.61c0 .24-.28.43-.63.43H1.9c-.35 0-.63-.2-.63-.43V3.02c0-.24.28-.43.63-.43h4.44z" fill="#ccc"/><path d="M2.64 2.58v5.7c0 .17.07.31.18.42a.69.69 0 0 0-.3.56v1.38a.69.69 0 0 0 1.38 0V9.26a.69.69 0 0 0-.3-.56c.12-.1.18-.25.18-.41v-5.7H3.5v.28H3.2v.28h.29v.29H3.2v.29h.29V4H3.2v.29h.29v.28H3.2v.29h.29v.28H3.2v.29h.29v.28H3.2v.29h.29v.28H3.2v.29h.29v.28H3.2v.29h.29v.28H3.2v.29h.29V8H3.2v.29h.29v.28H3.2V8.3h-.28V8h.28v-.28h-.28v-.29h.28v-.28h-.28v-.29h.28v-.28h-.28v-.29h.28v-.28h-.28v-.29h.28v-.28h-.28v-.29h.28v-.28h-.28v-.29h.28V4.3h-.28V4h.28v-.28h-.28v-.29h.28v-.29h-.28v-.28h.28v-.29zm.57 6.34c.2 0 .35.14.35.34 0 .17-.16.35-.35.35a.36.36 0 0 1-.34-.35c0-.2.15-.34.34-.34zm0 1.03c.2 0 .35.16.35.35v.34a.34.34 0 1 1-.7 0v-.34c0-.2.16-.35.35-.35zM7 5.69h-.02a.05.05 0 0 0-.02.07l.24.43c-.47.24-.76.7-.76 1.2h3c0-.5-.3-.96-.77-1.2l.24-.43a.05.05 0 0 0-.02-.07h-.02c-.01 0-.03 0-.04.02l-.24.43a1.6 1.6 0 0 0-1.3 0l-.24-.43A.05.05 0 0 0 7 5.69zm.17.86a.16.16 0 0 1 .16.16.16.16 0 0 1-.16.15.16.16 0 0 1-.16-.15.16.16 0 0 1 .16-.16zm1.53 0a.16.16 0 0 1 .16.16.16.16 0 0 1-.16.15.16.16 0 0 1-.15-.15.16.16 0 0 1 .15-.16zM5.85 7.57a.33.33 0 0 0-.33.34v1.4c0 .19.14.34.33.34s.34-.15.34-.34v-1.4a.33.33 0 0 0-.34-.34zm4.17 0a.33.33 0 0 0-.33.34v1.4c0 .19.15.34.33.34.19 0 .34-.15.34-.34v-1.4a.33.33 0 0 0-.34-.34zm-3.58.06v2.18c0 .2.16.36.36.36h.24v.74c0 .19.15.34.34.34.18 0 .33-.15.33-.34v-.74h.45v.74c0 .19.15.34.34.34.19 0 .33-.15.33-.34v-.74h.25c.2 0 .36-.16.36-.36V7.63z" fill="green"/></svg>
